!!!OTL: Mabufang chuaide heixingan
!!!ARE: Asia, China,ÿGansu Linxia
!! I, 124
!!!SCT: C1819
!!!YEM: Copyright 1995, estate of Helmut Schaffrath.
**kern
*ICvox
*Ivox
!! Mixed meters:  2/4; 3/4
*M2/4
*k[b-]
*F:
{16a
16cc
4dd
8cc
=1
8dd
8ff
8dd
16cc
16dd
=2
16a
16g
8f
4f
=3
8a
4g
16a
16g
=4
*M3/4
8f
16d
16c
2d}
=5
*M2/4
{8a
8a
8cc
8dd
=6
*M3/4
8a
8f
4.g
8a
=7
*M2/4
8cc
16dd
16cc
8a
8f
=8
16g
16a
8g
4r}
=9
{16a
16cc
4dd
8cc
=10
8dd
8ff
8dd
16cc
16dd
=11
16a
16g
[8f
4f]
=12
8a
4g
16a
16g
=13
8f
16d
16c
2d}
==
!!!AGN: Xiaodiao, Yanxiqu
!! Hui
!!!ONB: ESAC (Essen Associative Code) Database: SENGANSU
!!!AMT: irregular
!!!AIN: vox
!!!EED: Helmut Schaffrath
!!!EEV: 1.0
*-
